X:1
T:Dickerson, 76.76.76 D
T:Dickerson, 76.76.76 D
T:I. N. Dickerson, 1898
T:Public Domain Courtesy of the Cyber Hymnal™
C:I. N. Dickerson, 1898
Z:Public Domain
Z:Courtesy of the Cyber Hymnal™
%%score 1 ( 2 3 )
L:1/8
Q:1/4=105
M:6/8
K:Bb
V:1 treble 
V:2 bass 
V:3 bass 
V:1
 [DF] | [Fd]2 [DB] ([Ec][GB])[EG] | [DF]3!<(! [DB] z!<)! [DB] | [Fc]2 [Fd] [Fe]2 [Fd] | %4
 [Fc]3 z2 [Fc] | [Fd]2 [Fd] [Ge]2 [G=e] | [Ff]3!f! ([Ff][Ge])[Ec] | [DB]2 [Fd] [Ec]2 [EA] | %8
 [DB]4 z |: [DB] | [Fc]2 [Fd] [Fe]2 [Fd] | [Fc]3 [Fe]2 [F=e] | [Ff]2 [Fd] [DB]2 [EG] | %13
 [DF]3 z2 [DF] | [EG]2 [EB] [Ec][GB][EG] | [DF]3 [DB] z [Fd] |"^rit." [Ec]2 [Gc] [FB]2 [EA] | %17
 [DB]4 z :| %18
V:2
 [B,,B,] | [B,,B,]2 [B,,B,] [E,G,]2 [E,G,] | [B,,B,]3 [B,,F,] z [B,,F,] | %3
 [F,A,]2 [F,B,] [F,C]2 [F,B,] | [F,A,]3 z2 [F,A,] | B,2 B, [G,B,]2 [G,A,] | [F,B,]3 (DC)[F,A,] | %7
 [B,,B,]2 [B,,B,] [F,A,]2 [F,A,] | [B,,B,]4 z |: [B,,B,] | [F,A,]2 [F,B,] [F,C]2 [F,B,] | %11
 [F,A,]3 [F,C]2 [F,^C] | [B,,D]2 [B,,B,] [E,G,]2 [E,B,] | [B,,B,]3 z2 [B,,B,] | %14
 [E,B,]2 [E,B,] (G,B,)[E,B,] | [B,,B,]3 [B,,F,] z [B,,B,] | [E,G,]2 [E,G,] [F,A,]2 [F,C] | %17
 [B,,B,]4 z :| %18
V:3
 x | x6 | x6 | x6 | x6 | B,2 B, x3 | x3 F,2 x | x6 | x5 |: x | x6 | x6 | x6 | x6 | x3 E,2 x | x6 | %16
 x6 | x5 :| %18

